build/images/header/phone.svg

<svg width="39" height="38" viewBox="0 0 39 38" fill="none" xmlns="http://www.w3.org/2000/svg">
<path d="M3.17958 2.88303L2.88096 3.26407C2.38874 3.89213 1.97245 4.62281 1.66092 5.41647C1.37019 6.18374 1.19415 6.90205 1.11386 7.61275L1.11301 7.62025L1.11298 7.62025C0.393152 13.5878 3.0548 19.1783 10.9779 27.1015C21.6682 37.7911 30.1881 37.0065 30.4755 36.9772C31.2234 36.8872 31.9399 36.7087 32.6739 36.4238C33.4609 36.1163 34.1927 35.7001 34.8221 35.2077L35.1222 34.9728L36.4498 33.6728C37.2921 32.8248 37.2786 31.5199 36.5245 30.7627C36.5244 30.7626 36.5242 30.7624 36.524 30.7622L30.6448 24.8824C30.6446 24.8822 30.6445 24.8821 30.6443 24.8819C29.8867 24.1279 28.5795 24.1161 27.7337 24.9622L27.7335 24.9624L24.7702 27.925L24.2387 28.4564L23.5805 28.0937C23.3916 27.9895 23.1962 27.8809 22.9911 27.7658C21.1069 26.7218 18.4424 25.2451 15.6439 22.4447C15.6438 22.4446 15.6437 22.4445 15.6436 22.4444M3.17958 2.88303L11.1913 14.6078C12.2308 16.4793 13.6529 19.0399 16.3509 21.7375L15.6436 22.4444M3.17958 2.88303L4.41347 1.64205C4.41376 1.64176 4.41405 1.64147 4.41434 1.64118C5.26299 0.79321 6.56958 0.807451 7.3231 1.56066C7.32314 1.56071 7.32319 1.56076 7.32324 1.56081L13.2045 7.44343C13.9599 8.19971 13.9737 9.5061 13.126 10.3541L13.1257 10.3544L12.1488 11.3324L12.1479 11.3334L10.1601 13.3183L9.61904 13.8585L9.99849 14.5222C10.0837 14.6713 10.1698 14.8271 10.2632 14.9959C10.2787 15.024 10.2944 15.0524 10.3103 15.0813L10.3112 15.0827L10.3231 15.1043C11.3692 16.9876 12.8466 19.6477 15.6436 22.4444M3.17958 2.88303L15.6436 22.4444" stroke="#141414" stroke-width="2"/>
</svg>

<svg width="39" height="38" fill="none" xmlns="http://www.w3.org/2000/svg"><path d="M3.18 2.883l-.299.381a8.585 8.585 0 00-1.22 2.152 8.987 8.987 0 00-.547 2.197l-.001.007h0c-.72 5.968 1.942 11.558 9.865 19.482 10.69 10.69 19.21 9.905 19.497 9.875a8.939 8.939 0 002.199-.553 8.558 8.558 0 002.148-1.216l.3-.235 1.328-1.3c.842-.848.829-2.153.075-2.91h-.001l-5.88-5.88v-.001c-.757-.754-2.064-.766-2.91.08h0l-2.964 2.963-.531.531-.659-.362a91.891 91.891 0 01-.589-.328c-1.884-1.044-4.549-2.52-7.347-5.321 0 0 0 0 0 0M3.18 2.882l8.011 11.725c1.04 1.871 2.462 4.432 5.16 7.13l-.707.706M3.18 2.883l1.233-1.241h.001c.849-.85 2.156-.836 2.91-.082 0 0 0 0 0 0l5.88 5.882c.756.757.77 2.063-.078 2.911h0l-.977.978-.001.001-1.988 1.985-.541.54.38.664c.085.15.17.305.264.474l.047.085.001.002.012.021c1.046 1.884 2.524 4.544 5.32 7.34M3.18 2.883l12.464 19.561" stroke="#141414" stroke-width="2"/></svg>
